apps/documenteditor/main/resources/img/toolbar/2.5x/big/btn-dropcap.svg

<svg width="28" height="28" viewBox="0 0 28 28" fill="none" xmlns="http://www.w3.org/2000/svg">
<path fill-rule="evenodd" clip-rule="evenodd" d="M14 6H23V7H14V6ZM14 9H23V10H14V9ZM23 12H14V13H23V12ZM23 15V16H5V15H23ZM23 19V18H5V19H23ZM23 21V22H5V21H23ZM10.4677 13H12L9.20666 6H7.7172L5 13H6.49422L7.07002 11.41H9.8586L10.4677 13ZM8.44528 7.63302L9.40653 10.2306H7.50306L8.44528 7.63302Z" fill="black"/>
</svg>

<svg xmlns="http://www.w3.org/2000/svg" width="28" height="28" fill="none"><path fill="#000" d="M14 6h9v1h-9V6Zm0 3h9v1h-9V9Zm9 3h-9v1h9v-1Zm0 3v1H5v-1h18Zm0 4v-1H5v1h18Zm0 2v1H5v-1h18Zm-12.532-8H12L9.207 6h-1.49L5 13h1.494l.576-1.59h2.789l.609 1.59ZM8.445 7.633l.962 2.598H7.503l.942-2.598Z"/></svg>
